X:1
T:Title
%%score { ( 1 3 ) | ( 2 4 ) }
L:1/8
M:4/4
K:Ab
V:1 treble nm="Grand Piano"
V:3 treble 
V:2 bass 
V:4 bass 
V:1
 z4 z2[Q:1/4=100] [CE]2 | [CE]2 [Ec]2 [Ec]3 [EB] | .B2 z2 z4 | z4 z2 .B2 | B4 z2 E2 | %5
 [CE]2 [Ec]2 [Ec]3 [EB] | .B2 z2 z4 | E2 A2 B2 c2 |[M:3/4] [CA]4 z2 |[M:1/4] [EA][EB] | %10
[M:4/4] [Ec]6 z2 | [DF]6 z2 | [CE]6 z2 |[M:9/8] [EB]6- [EB] z z |[M:4/4] [CE]2 [Ec]2 [Ec]3 [EB] | %15
 BA[Fd]F F3 F | E2 A2 B2 c2 |[M:3/4] [CA]6 |] %18
V:2
 z4 z2 [A,,A,]2 | [A,,A,]2 [A,,A,]2 [A,,A,]3 [A,,A,] | [D,A,]2 z D [D,A,D]3 [D,A,D] | %3
 [C,A,]2 [C,A,]2 [C,A,]2 [B,,G,][A,,A,] | [E,G,E]4 z2 [E,G,D]2 | %5
 [A,,A,]2 [A,,A,]2 [A,,A,]3 [C,A,] | [D,A,]2 z D [D,A,D]3 [D,A,D] | %7
 [E,A,C]2 [E,CE]2 [E,G,D]2 [E,G,E]2 |[M:3/4] [A,,A,]4 z2 |[M:1/4] [C,A,][E,G,] | %10
[M:4/4] A,2 A,,2 A,,2 [A,,A,][A,,A,] | [D,A,]2 D,2 D,2 D,D, | A,,2 A,,2 A,,2 C,[A,,A,] | %13
[M:9/8] [E,G,]2 E,- E, E,2- E, [E,G,D]2 |[M:4/4] [A,,A,]2 [A,,A,]2 [A,,A,]3 [C,A,] | %15
 [D,A,]2 z D [D,A,D]3 [D,A,D] | [E,A,C]2 [E,CE]2 [E,G,D]2 [E,G,E]2 |[M:3/4] [A,,A,]6 |] %18
V:3
 x8 | x8 | F-[FA][Fd]F F3 F | E2 [EA]2 [EA]2 E-[Ec] | x8 | x8 | F-[FA][Fd]F F3 F | x8 |[M:3/4] x6 | %9
[M:1/4] x2 |[M:4/4] z2 A,2 A,2 [DB][CA] | z2 A,2 A,2 [A,FA][A,DF] | A,2 A,2 A,2 [A,EA][Ec] | %13
[M:9/8] z2 G,- G, G,2- G, E2 |[M:4/4] x8 | F2 z2 z4 | x8 |[M:3/4] x6 |] %18
V:4
 x8 | x8 | z2 [D,A,]2 z4 | x8 | x8 | x8 | z2 [D,A,]2 z4 | x8 |[M:3/4] x6 |[M:1/4] x2 |[M:4/4] x8 | %11
 x8 | x8 |[M:9/8] x9 |[M:4/4] x8 | z2 [D,A,]2 z4 | x8 |[M:3/4] x6 |] %18

